Newaita-dark/actions/22/system-lock-screen.svg

<?xml version="1.0" encoding="UTF-8"?>
<svg xmlns="http://www.w3.org/2000/svg" xmlns:xlink="http://www.w3.org/1999/xlink" width="22pt" height="22pt" viewBox="0 0 22 22" version="1.1">
<defs>
<filter id="alpha" filterUnits="objectBoundingBox" x="0%" y="0%" width="100%" height="100%">
  <feColorMatrix type="matrix" in="SourceGraphic" values="0 0 0 0 1 0 0 0 0 1 0 0 0 0 1 0 0 0 1 0"/>
</filter>
<mask id="mask0">
  <g filter="url(#alpha)">
<rect x="0" y="0" width="22" height="22" style="fill:rgb(0%,0%,0%);fill-opacity:0.988235;stroke:none;"/>
  </g>
</mask>
<clipPath id="clip1">
  <rect x="0" y="0" width="22" height="22"/>
</clipPath>
<g id="surface5" clip-path="url(#clip1)">
<path style=" stroke:none;fill-rule:nonzero;fill:rgb(25.882354%,64.705884%,96.078432%);fill-opacity:1;" d="M 7.054688 7.226562 C 7.324219 6.960938 7.753906 6.960938 8.019531 7.226562 L 14.773438 13.980469 C 15.039062 14.246094 15.039062 14.679688 14.773438 14.945312 C 14.507812 15.210938 14.074219 15.210938 13.808594 14.945312 L 7.054688 8.191406 C 6.789062 7.925781 6.789062 7.496094 7.054688 7.226562 Z M 7.054688 7.226562 "/>
</g>
<mask id="mask1">
  <g filter="url(#alpha)">
<rect x="0" y="0" width="22" height="22" style="fill:rgb(0%,0%,0%);fill-opacity:0.988235;stroke:none;"/>
  </g>
</mask>
<clipPath id="clip2">
  <rect x="0" y="0" width="22" height="22"/>
</clipPath>
<g id="surface8" clip-path="url(#clip2)">
<path style=" stroke:none;fill-rule:nonzero;fill:rgb(25.882354%,64.705884%,96.078432%);fill-opacity:1;" d="M 14.773438 7.226562 C 15.039062 7.496094 15.039062 7.925781 14.773438 8.191406 L 8.019531 14.945312 C 7.753906 15.210938 7.324219 15.210938 7.054688 14.945312 C 6.789062 14.679688 6.789062 14.246094 7.054688 13.980469 L 13.808594 7.226562 C 14.074219 6.960938 14.507812 6.960938 14.773438 7.226562 Z M 14.773438 7.226562 "/>
</g>
<mask id="mask2">
  <g filter="url(#alpha)">
<rect x="0" y="0" width="22" height="22" style="fill:rgb(0%,0%,0%);fill-opacity:0.988235;stroke:none;"/>
  </g>
</mask>
<clipPath id="clip3">
  <rect x="0" y="0" width="22" height="22"/>
</clipPath>
<g id="surface11" clip-path="url(#clip3)">
<path style=" stroke:none;fill-rule:nonzero;fill:rgb(25.882354%,64.705884%,96.078432%);fill-opacity:1;" d="M 14.773438 7.226562 C 15.039062 7.496094 15.039062 7.925781 14.773438 8.191406 L 8.019531 14.945312 C 7.753906 15.210938 7.324219 15.210938 7.054688 14.945312 C 6.789062 14.679688 6.789062 14.246094 7.054688 13.980469 L 13.808594 7.226562 C 14.074219 6.960938 14.507812 6.960938 14.773438 7.226562 Z M 14.773438 7.226562 "/>
</g>
</defs>
<g id="surface1">
<path style=" stroke:none;fill-rule:nonzero;fill:rgb(25.882354%,64.705884%,96.078432%);fill-opacity:1;" d="M 10.914062 1.082031 C 5.371094 1.082031 0.910156 5.542969 0.910156 11.085938 C 0.910156 16.628906 5.371094 21.09375 10.914062 21.09375 C 16.457031 21.09375 20.921875 16.628906 20.921875 11.085938 C 20.921875 5.542969 16.457031 1.082031 10.914062 1.082031 Z M 10.914062 2.445312 C 15.703125 2.445312 19.554688 6.300781 19.554688 11.085938 C 19.554688 15.875 15.703125 19.726562 10.914062 19.726562 C 6.128906 19.726562 2.273438 15.875 2.273438 11.085938 C 2.273438 6.300781 6.128906 2.445312 10.914062 2.445312 Z M 10.914062 2.445312 "/>
<use xlink:href="#surface5" mask="url(#mask0)"/>
<use xlink:href="#surface8" mask="url(#mask1)"/>
<use xlink:href="#surface11" mask="url(#mask2)"/>
</g>
</svg>

<svg xmlns="http://www.w3.org/2000/svg" xmlns:xlink="http://www.w3.org/1999/xlink" width="22pt" height="22pt" viewBox="0 0 22 22"><defs><filter id="a" filterUnits="objectBoundingBox" x="0%" y="0%" width="100%" height="100%"><feColorMatrix in="SourceGraphic" values="0 0 0 0 1 0 0 0 0 1 0 0 0 0 1 0 0 0 1 0"/></filter><mask id="f"><path fill-opacity=".988" d="M0 0h22v22H0z" filter="url(#a)"/></mask><clipPath id="b"><path d="M0 0h22v22H0z"/></clipPath><g id="e" clip-path="url(#b)"><path d="M7.055 7.227c.27-.266.699-.266.965 0l6.753 6.753c.266.266.266.7 0 .965a.684.684 0 0 1-.964 0L7.055 8.191a.684.684 0 0 1 0-.964zm0 0" fill="#42a5f5"/></g><mask id="h"><path fill-opacity=".988" d="M0 0h22v22H0z" filter="url(#a)"/></mask><clipPath id="c"><path d="M0 0h22v22H0z"/></clipPath><g id="g" clip-path="url(#c)"><path d="M14.773 7.227c.266.27.266.699 0 .964L8.02 14.945a.684.684 0 0 1-.965 0 .684.684 0 0 1 0-.965l6.754-6.753a.684.684 0 0 1 .964 0zm0 0" fill="#42a5f5"/></g><mask id="j"><path fill-opacity=".988" d="M0 0h22v22H0z" filter="url(#a)"/></mask><clipPath id="d"><path d="M0 0h22v22H0z"/></clipPath><g id="i" clip-path="url(#d)"><path d="M14.773 7.227c.266.27.266.699 0 .964L8.02 14.945a.684.684 0 0 1-.965 0 .684.684 0 0 1 0-.965l6.754-6.753a.684.684 0 0 1 .964 0zm0 0" fill="#42a5f5"/></g></defs><path d="M10.914 1.082A9.981 9.981 0 0 0 .91 11.086a9.984 9.984 0 0 0 10.004 10.008 9.988 9.988 0 0 0 10.008-10.008A9.984 9.984 0 0 0 10.914 1.082zm0 1.363c4.79 0 8.64 3.856 8.64 8.64 0 4.79-3.85 8.642-8.64 8.642a8.621 8.621 0 0 1-8.64-8.641 8.624 8.624 0 0 1 8.64-8.64zm0 0" fill="#42a5f5"/><use xlink:href="#e" mask="url(#f)"/><use xlink:href="#g" mask="url(#h)"/><use xlink:href="#i" mask="url(#j)"/></svg>
